X:1
T:Malvern, LM
T:Lowell Mason, 1847
T:Malvern, LM
T:Public Domain
C:Lowell Mason, 1847
Z:Public Domain
%%score 1 ( 2 3 )
L:1/8
M:2/4
K:D
V:1 treble 
V:2 bass 
V:3 bass 
V:1
 [DF]2 [DF][DF] | [DF]3 [DF] | ([DF][CE]) ([DF][EG]) | [FA]3 [FA] | [GB]2 [GB]2 | [FA]3 [DF] | %6
 ([EG][FA]) ([DF][EG]) | [CE]4 | [DF]2 [DF][DF] | [DF]3 [DF] | ([DF][CE]) ([DF][EG]) | [FA]3 [FA] | %12
 [GB]2 [GB]2 | [FA]3 [DF] | ([CE][DF]) ([EG][FA]) | [DF]4 |] %16
V:2
 [D,A,]2 [D,A,][D,A,] | [D,A,]3 [F,A,] | (A,G,) (F,E,) | [D,A,]3 [D,D] | [D,D]2 [D,D]2 | %5
 [D,D]3 [D,A,] | [A,,A,]2 [A,,A,]2 | [A,,A,]4 | [D,A,]2 [D,A,][D,A,] | [D,A,]3 [F,A,] | %10
 (A,G,) (F,E,) | [D,A,]3 [D,D] | [G,D]2 [G,D]2 | [D,D]3 [F,A,] | A,2 [A,,A,]2 | [D,A,]4 |] %16
V:3
 x4 | x4 | x2 A,2 | x4 | x4 | x4 | x4 | x4 | x4 | x4 | x2 A,2 | x4 | x4 | x4 | A,2 x2 | x4 |] %16

